assets/icons/quickActionCart.svg

<svg width="40" height="40" viewBox="0 0 40 40" fill="none" xmlns="http://www.w3.org/2000/svg">
<rect width="40" height="40" rx="20" fill="#3869EE" fill-opacity="0.15"/>
<path d="M15.932 26.2441C14.8665 26.233 13.9951 27.0719 13.9837 28.1081C13.9724 29.1444 14.8252 30.0011 15.8907 30.0122C16.9563 30.0232 17.8374 29.1844 17.8487 28.1482C17.8601 27.112 16.9976 26.2551 15.932 26.2441ZM10.2748 12.0534C10.2692 12.5715 10.7004 12.9999 11.2332 13.0054L12.2019 13.0155L15.6107 20.2016L14.2778 22.4866C13.5569 23.7416 14.47 25.2868 15.9424 25.302L26.5978 25.4124C27.1306 25.4179 27.5712 24.9985 27.5768 24.4804C27.5825 23.9623 27.1513 23.5339 26.6185 23.5283L15.963 23.418L17.0492 21.5449L24.2659 21.6197C24.9924 21.6272 25.6359 21.2476 25.9717 20.667L29.5066 14.5891C29.5898 14.4472 29.6334 14.2866 29.6332 14.1232C29.633 13.9598 29.5889 13.7993 29.5053 13.6576C29.4217 13.5158 29.3015 13.3978 29.1566 13.3151C29.0117 13.2324 28.8471 13.188 28.6791 13.1862L14.3427 13.0376L13.7084 11.6838C13.6323 11.5222 13.5105 11.385 13.3571 11.2883C13.2037 11.1916 13.0252 11.1394 12.8425 11.1378L11.2538 11.1214C10.7211 11.1158 10.2805 11.5352 10.2748 12.0534ZM25.6188 26.3444C24.5533 26.3334 23.6819 27.1723 23.6705 28.2085C23.6592 29.2447 24.512 30.1015 25.5775 30.1125C26.6431 30.1236 27.5242 29.2848 27.5355 28.2485C27.5469 27.2123 26.6844 26.3554 25.6188 26.3444Z" fill="#3869EE" fill-opacity="0.7"/>
</svg>

<svg xmlns="http://www.w3.org/2000/svg" width="40" height="40" fill="none" viewBox="0 0 40 40"><rect width="40" height="40" fill="#3869ee" fill-opacity=".15" rx="20"/><path fill="#3869ee" fill-opacity=".7" d="M15.932 26.244c-1.065-.011-1.937.828-1.948 1.864-.012 1.036.841 1.893 1.907 1.904 1.065.011 1.946-.828 1.958-1.864.011-1.036-.851-1.893-1.917-1.904m-5.657-14.19c-.006.518.425.946.958.951l.969.01 3.409 7.187-1.333 2.285c-.721 1.255.192 2.8 1.664 2.815l10.656.11c.533.006.973-.413.979-.932.005-.518-.426-.946-.959-.952l-10.655-.11 1.086-1.873 7.217.075a1.94 1.94 0 0 0 1.706-.953l3.535-6.078a.92.92 0 0 0-.002-.931.95.95 0 0 0-.348-.343 1 1 0 0 0-.478-.129l-14.336-.148-.635-1.354a.94.94 0 0 0-.35-.396 1 1 0 0 0-.516-.15l-1.588-.017c-.533-.005-.973.414-.98.932m15.344 14.29c-1.066-.01-1.937.828-1.948 1.864-.012 1.037.841 1.894 1.907 1.905 1.065.01 1.946-.828 1.957-1.864s-.85-1.894-1.916-1.905"/></svg>
